X:5
T:Midnight on the Water
C:Luke Thomasson
B:Fiddler's Fakebook
D:David Bromberg - Midnight on the Water
R:Waltz
A:Old-time USA
M:3/4
Q:250
L:1/8
K:D
(DE |: "D".F2.F2.F2) | (.F2.F2.F2) | (A4A)(B | AF (3E/F/E/D) (DE | F2) d2 "G"(Bd) |
"D" A3 (F DE | "A"F2) (AF (3E/F/E/ D) |1 "D"D4 DE :|2 "D"D4 Bc ||
"D"d2 d3 (e| dc) (BA) Bc| {c}d3 (B AF)| D4 [F2d2]|"Em"e4 (ef)|
e3 (d ed)| "Bm"(f3a) (fe)| (dc) (BA) (Bc) |"G"{c}d3 (c de)| (dc) (BA) Bc | "D"d3 (B AF) |
D4 (DE | F2) d2 "G"(Bd) | "D"A3 (F DE)| "A"F2 (AF ED)|1 "D"D4 (Bc) :|2 "D"D4  ||
